X:26
T: Das Maedchen und der Faehnrich
N: Q0127G
O: Mitteleuropa, Deutschland (DDR) , Brandenburg, Charlottenburg
N: Taktart entsprechend der Takteinteilung in 2/4 geaendert.
R: Ballade, verbotene Liebe, Flucht
M: 2/4
L: 1/16
K: G
G2 | B2BAG2Bc | d2dcB2
d2 | e2e2A2d2 | c4B2
G2 | B2BAG2Bc | d2dcB2
d2 | e2e2A2d2 | c4B2
G2 | e3ce2ge | d3Bd2
ed | c2cBc2d2 | c4B2

@@@ Tune index: 1524
